X: 4523
T: Boots's
R: jig
M: 6/8
K: Bminor
F2B Bcd|cBA B2c|d2f ecA|FBB FAA|F2B Bcd|cBA B2c|d2f ecA|FBA B2A|
F2B Bcd|cBA B2c|d2f ecA|FBB FAA|F2B Bcd|cBA B2c|def ecA|FBA B2c|
d2d ede|fbb afe|fdB A2d|fdf edc|dcd ede|fbb afe|fdB A2f|edc d2A|
d2d ede|fbb afe|fdB A2d|fdf edc|d2d ede|fbb afe|fdB ecA|dBG cBA|

